X:1
T:Din Di Rin Din
T:Anonyme espagnol du 16ème siècle (Cancionero de Palacio) 
%%score 1 2 3 4
L:1/8
Q:1/4=240
M:3/4
K:D
V:1 treble nm="Soprano" snm="S."
V:2 treble nm="Alto" snm="A."
V:3 treble-8 nm="Tenor" snm="T."
V:4 bass nm="Bass" snm="B."
V:1
|: A2 G2 G2 | F2 F2 G2 | A2 A2 G2 | F4 G2 | A2 F2 F2 |[M:2/4][Q:1/4=160] !breath!!fermata!E4 | %6
w: Din di rin|Din di rin|Din di rin|Da ña|Din di rin|da|
w: ||||||
w: ||||||
[M:3/4][Q:1/4=240] A2 G2 G2 | F2 F2 G2 | A2 A2 G2 | F4 G2 | A2 F2 F2 | %11
w: Din di rin|Din di rin|Din di rin|Da ña|Din di rin|
w: |||||
w: |||||
[M:2/4][Q:1/4=160] !breath!!fermata!E4!fine! | e2 e2 | B2 B2 | B2 B2 | A4 | F2 F2 | G2 G2 | F2 F2 | %19
w: da|Ju me|le- veun|bel ma-|tin,|Ma- ti-|ne- ta|per la|
w: |En- con-|tré le|ryu- se-|ñor|Que can-|ta- va|so la|
w: |Ruy- se-|nõr, le|ruy- se-|ñor,|Fac- te-|mea- ques-|taem ba|
 (G2 B2 | A4) | G4 |[M:3/4][Q:1/4=240] G4 G2 | G4 G2 | G4 G2 | G6 | F4 G2 | A4 A2 | A4 G2 | F4 G2 | %30
w: pra _|_|ta|En- con-|tré le|ryu- se|ñor,|Que can-|ta- va|so la|ra- ma,|
w: ra _|_|ma|Ryu- se-|ñor, le|ruy- se-|ñor,|Fac- te-|mea quest-|taem- ba-|xa- ta|
w: xa _|_|ta|Y di-|gao- loa|mon a-|mi|Que ju|ja so|ma- ri-|ta- ta,|
 A2 F2 F2 | !fermata!E6!D.C.! :| %32
w: Din di rin|din.|
w: ||
w: ||
V:2
|: E2 E2 E2 | D2 D2 E2 | F2 F2 E2 | ^D4 E2 | C2 ^D2 D2 |[M:2/4] !breath!!fermata!E4 | %6
[M:3/4] E2 E2 E2 | D2 D2 E2 | F2 F2 E2 | ^D4 E2 | C2 ^D2 D2 |[M:2/4] !breath!!fermata!E4 | E2 E2 | %13
 G2 G2 | G2 G2 | A4 | A2 A2 | B2 B2 | A2 A2 | (G3 E | F4) | G4 |[M:3/4] E4 E2 | E4 E2 | E4 E2 | %25
 E6 | D4 E2 | F4 F2 | F4 E2 | ^D4 E2 | C2 ^D2 D2 | !fermata!E6 :| %32
V:3
|: B2 B2 B2 | B2 B2 B2 | d2 d2 B2 | B4 B2 | A2 B2 B2 |[M:2/4] !breath!!fermata!B4 | %6
w: Din di rin|Din di rin|Din di rin|Da ña|Din di rin|da|
w: ||||||
w: ||||||
[M:3/4] B2 B2 B2 | B2 B2 B2 | d2 d2 B2 | B4 B2 | A2 B2 B2 |[M:2/4] !breath!!fermata!B4 | B2 B2 | %13
w: Din di rin|Din di rin|Din di rin|Da ña|Din di rin|da|Ju me|
w: ||||||En- con-|
w: ||||||Ruy- se-|
 e2 e2 | e2 e2 | e4 | d2 d2 | d2 d2 | d2 d2 | d4- | d4 | d4 |[M:3/4] =c4 c2 | =c4 c2 | =c4 c2 | %25
w: le- veun|bel ma-|tin,|Ma- ti-|ne- ta|per la|pra|_|ta|En- con-|tré le|ruy- se-|
w: tré le|ryu- se-|ñor|Que can-|ta- ba|so la|ra|_|ma|Ruy- se-|ñor, le|ruy- se-|
w: ñor, le|ruy- se-|ñor,|Fac- te-|mea- quest-|taem ba-|xa|_|ta|Y di-|gao- loa|mon a-|
 B6 | B4 B2 | d4 d2 | d4 B2 | B4 B2 | A2 B2 B2 | !fermata!B6 :| %32
w: ñor|Que can-|ta- va|so la|ra- ma,|Din di rin|din.|
w: ñor,|Fac- te-|mea- quest-|taem- ba-|xa- ta|||
w: mi,|Que ju|ja so|ma- ri-|ta- ta,|||
V:4
|: E,2 E,2 E,2 | B,,2 B,,2 E,2 | D,2 D,2 E,2 | B,,4 E,2 | F,2 B,,2 B,,2 | %5
[M:2/4] !breath!!fermata!A,4 |[M:3/4] E,2 E,2 E,2 | B,,2 B,,2 E,2 | D,2 D,2 E,2 | B,,4 E,2 | %10
 F,2 B,,2 B,,2 |[M:2/4] !breath!!fermata!E,4 | E,2 E,2 | E,2 E,2 | E,2 E,2 | A,4 | D,2 D,2 | %17
 G,2 G,2 | D,2 D,2 | (G,4 | D,4) | G,4 |[M:3/4] =C,4 C,2 | =C,4 C,2 | =C,4 C,2 | E,6 | B,,4 E,2 | %27
 D,4 D,2 | D,4 E,2 | B,,4 E,2 | F,2 B,,2 B,,2 | !fermata!E,6 :| %32

